src/public/icons/medium.svg

<svg viewBox="0 0 30 30" fill="none"
  xmlns="http://www.w3.org/2000/svg">
  <path d="M25.5 14.9678C25.5 15.8701 25.4521 16.7109 25.3564 17.4902C25.2607 18.2559 25.1309 18.8643 24.9668 19.3154C24.8164 19.7666 24.6523 19.9922 24.4746 19.9922C24.1738 19.9922 23.9209 19.5068 23.7158 18.5361C23.5107 17.5518 23.4082 16.3623 23.4082 14.9678C23.4082 13.5732 23.5107 12.3838 23.7158 11.3994C23.9209 10.415 24.1738 9.92285 24.4746 9.92285C24.6523 9.92285 24.8164 10.1484 24.9668 10.5996C25.1309 11.0508 25.2607 11.666 25.3564 12.4453C25.4521 13.2109 25.5 14.0518 25.5 14.9678ZM4.5 14.9678C4.5 13.8877 4.7666 12.8896 5.2998 11.9736C5.83301 11.0576 6.55078 10.333 7.45312 9.7998C8.35547 9.2666 9.34668 9 10.4268 9C11.5068 9 12.498 9.2666 13.4004 9.7998C14.3027 10.333 15.0205 11.0576 15.5537 11.9736C16.0869 12.8896 16.3535 13.8877 16.3535 14.9678C16.3535 16.0479 16.0869 17.0459 15.5537 17.9619C15.0205 18.8779 14.3027 19.6025 13.4004 20.1357C12.498 20.6689 11.5068 20.9355 10.4268 20.9355C9.34668 20.9355 8.35547 20.6689 7.45312 20.1357C6.55078 19.6025 5.83301 18.8779 5.2998 17.9619C4.7666 17.0459 4.5 16.0479 4.5 14.9678ZM16.9277 14.9678C16.9277 13.9424 17.0576 12.999 17.3174 12.1377C17.5908 11.2764 17.9531 10.5996 18.4043 10.1074C18.8555 9.60156 19.3477 9.34863 19.8809 9.34863C20.4141 9.34863 20.9062 9.60156 21.3574 10.1074C21.8086 10.5996 22.1641 11.2764 22.4238 12.1377C22.6973 12.999 22.834 13.9424 22.834 14.9678C22.834 15.9795 22.6973 16.916 22.4238 17.7773C22.1641 18.6387 21.8086 19.3223 21.3574 19.8281C20.9062 20.334 20.4141 20.5869 19.8809 20.5869C19.3477 20.5869 18.8555 20.334 18.4043 19.8281C17.9531 19.3223 17.5908 18.6387 17.3174 17.7773C17.0576 16.916 16.9277 15.9795 16.9277 14.9678Z" fill="#706b6d"/>
</svg>

<svg xmlns="http://www.w3.org/2000/svg" fill="none" viewBox="0 0 30 30"><path fill="#706b6d" d="M25.5 14.968q0 1.353-.144 2.522-.143 1.149-.39 1.825-.225.677-.491.677-.451 0-.76-1.456-.306-1.476-.307-3.568 0-2.092.308-3.569.307-1.476.759-1.476.265 0 .492.677.246.676.39 1.845.143 1.149.143 2.523m-21 0q0-1.62.8-2.994A5.97 5.97 0 0 1 7.453 9.8a5.74 5.74 0 0 1 2.974-.8q1.62 0 2.973.8a5.97 5.97 0 0 1 2.154 2.174q.8 1.374.8 2.994t-.8 2.994a5.97 5.97 0 0 1-2.154 2.174q-1.353.8-2.973.8a5.74 5.74 0 0 1-2.974-.8A5.97 5.97 0 0 1 5.3 17.962a5.85 5.85 0 0 1-.8-2.994m12.428 0q0-1.539.39-2.83.41-1.293 1.086-2.03.677-.76 1.477-.76t1.476.76q.678.737 1.067 2.03.41 1.291.41 2.83 0 1.517-.41 2.81-.39 1.29-1.067 2.05t-1.476.759q-.8 0-1.477-.759-.675-.76-1.087-2.05a9.7 9.7 0 0 1-.39-2.81"/></svg>
